X:1
T:Andro
S:Ar Re Youank
Z:<Rene.Quiniou:irisa.fr> abcusers 2000-05-24
N:Jou\'e normalement en Sib (Sol mineur)
M:C|
L:1/8
K:Am
|: "Am"AGAB c3B   | A2c2 "G"B3B | BAGB "Am"A3A  | A2ed c3A \
|  "Am"AGAB c2cc- | cAdc "G"B3B | BAGB "Am"A2AB | "Em"cABc "Am"A4 :|
|: "Am"ABAG "C"e3e | c2Bc "G"d3B | "G7"AGGf "C"e3e  | "F"c2Ac "G"B3B \
|  "G7"AGfd "C"e3e | cdec "G"d3e | "G"dcBc "Am"A2AB | "Em"cABc "Am"A4 :|
